X:641
T: "Schlemmhimmel"
N: Z1322
O: Europa, Mitteleuropa, Deutschland, Westfalen
R: Zech -, Schalks - Lied
M: 2/4
L: 1/8
K: C
G,CCC | B,DDz |
ECFD | CB,Cz |
G,CCC | B,DD2 |
ECFD | CB,C2 |
CEDE | FEDz |
CEDE | FED2 |
G,CCC | B,DD2 |
ECFD | CB,C2

@@@ Tune index: 10399
